automatic/svg/Sony - PlayStation 2 PSX-5000.svg

<?xml version="1.0" encoding="UTF-8" standalone="no"?>
<svg
   xmlns:dc="http://purl.org/dc/elements/1.1/"
   xmlns:cc="http://creativecommons.org/ns#"
   xmlns:rdf="http://www.w3.org/1999/02/22-rdf-syntax-ns#"
   xmlns:svg="http://www.w3.org/2000/svg"
   xmlns="http://www.w3.org/2000/svg"
   viewBox="0 0 320 320"
   height="320"
   width="320"
   xml:space="preserve"
   version="1.1"
   id="svg2"><metadata
     id="metadata8"><rdf:RDF><cc:Work
         rdf:about=""><dc:format>image/svg+xml</dc:format><dc:type
           rdf:resource="http://purl.org/dc/dcmitype/StillImage" /></cc:Work></rdf:RDF></metadata><defs
     id="defs6" /><g
     transform="matrix(1.25,0,0,-1.25,0,320)"
     id="g10"><g
       transform="translate(240,12)"
       id="g12"><path
         id="path14"
         style="fill:#e6e6e6;fill-opacity:1;fill-rule:nonzero;stroke:none"
         d="m 0,0 -20,8 0.429,8 11.571,0 4,0 0,4 0,212 4,0 L 0,0 Z m -23.363,20 -177.274,0 -4.006,0 -11.357,0 0,212 4.006,0 199.988,0 4.006,0 0,-212 -11.357,0 -4.006,0 z M -224,0 l 0,232 4,0 0,-212 0,-4 4,0 11.571,0 0.429,-8 -20,-8 z m 224,236 -4,0 -4,0 -3.791,0 -200.417,0 -3.792,0 -4,0 -4,0 -4,0 0,-4 0,-232 0,-5.908 5.485,2.194 20,8 2.662,1.065 -0.153,2.863 -0.417,7.786 176.846,0 -0.417,-7.786 -0.153,-2.863 2.662,-1.065 20,-8 L 4,-5.908 4,0 l 0,232 0,4 -4,0 z" /></g></g></svg>

<?xml version="1.0" encoding="UTF-8" standalone="no"?>
<svg
   xmlns:dc="http://purl.org/dc/elements/1.1/"
   xmlns:cc="http://creativecommons.org/ns#"
   xmlns:rdf="http://www.w3.org/1999/02/22-rdf-syntax-ns#"
   xmlns:svg="http://www.w3.org/2000/svg"
   xmlns="http://www.w3.org/2000/svg"
   viewBox="0 0 309.33331 322.544"
   height="322.54401"
   width="309.33331"
   xml:space="preserve"
   id="svg2"
   version="1.1"><metadata
     id="metadata8"><rdf:RDF><cc:Work
         rdf:about=""><dc:format>image/svg+xml</dc:format><dc:type
           rdf:resource="http://purl.org/dc/dcmitype/StillImage" /></cc:Work></rdf:RDF></metadata><defs
     id="defs6" /><g
     transform="matrix(1.3333333,0,0,-1.3333333,-16,330.66666)"
     id="g10"><g
       transform="translate(240,12)"
       id="g12"><path
         id="path14"
         style="fill:#e6e6e6;fill-opacity:1;fill-rule:nonzero;stroke:none"
         d="m 0,0 -20,8 0.429,8 H -8 -4 v 4 212 H 0 Z M -23.363,20 H -200.637 -204.643 -216 v 212 h 4.006 H -12.006 -8 V 20 H -19.357 Z M -224,0 v 232 h 4 V 20 16 h 4 11.571 L -204,8 Z M 0,236 h -4 -4 -3.791 -200.417 -3.792 -4 -4 -4 V 232 0 -5.908 l 5.485,2.194 20,8 2.662,1.065 -0.153,2.863 -0.417,7.786 h 176.846 l -0.417,-7.786 -0.153,-2.863 2.662,-1.065 20,-8 L 4,-5.908 V 0 v 232 4 z" /></g></g></svg>
